FINK
CUT[SOLL ICH DENN IN MEINEN SCHMERZEN]
REG[Europa, Mitteleuropa, Deutschland, Franken]
KEY[F0188A 16 Eb 3/4]
MEL[5_5_  +1__.7_6_5_  5_4_4__
    4_4_  3_5_+1_3_4_2_  2__1__
    5_5_  +1__.7_6_5_  5_4_4__
    4_4_  3_5_+1_3_4_2_  2__1__
    3_3_  5_4_2__7_7_  +2_+1_7__
    3_3_  5_4_2__7_7_  +2_.+17_6_
    5_5_  +1__.7_6_5_  5_3_4__
    4_4_  3_5_+1_3_4_2_  2__1_0_ //] >>
FCT[Liebes - Lied, Leid]
